!!!OTL: 884. Altes Lied nom Hochzeitmachen (Bettelhochzeit).
!!!ARE: Europa, Mitteleuropa, Deutschland
!!!SCT: E0884
!!!TXL: @@DE
!!!YEM: Copyright 1995, estate of Helmut Schaffrath.
**kern	**text
*ICvox	*
*M2/4	*
*k[b-]	*
*F:	*
=1	=1
!LO:TX:a:t=Schnell.	!
!LO:TX:a:t=Fink, Hausſchatʒ Nr. 39. Kretʒſchmer I, 141.	!
{8cc	1._Be-
8bn	-ſen-
8cc	-bin-
8a	-ders
=2	=2
4f	Toch-
8f}	-ter
{8a	und
=3	=3
8g	Ra-
8f#	-chel-
8g	-ma-
8e	-chers
=4	=4
4c	Sohn,
8r}	.
{8a	die
=5	=5
8cc	hat-
8bn	-ten
8cc	ſich
8a	ver-
=6	=6
4f	-ſpro-
8f}	-chen
{8a	und
=7	=7
8g	wollt'n
8f#	ein-
8g	-an-
8e	-der
=8	=8
4f	han.
8r}	.
{8c	2._Da
=9	=9
8c	kam
8c	die
8c	Mut-
8c	-ter
=10	=10
4b-	g'ſprun-
8b-/}	-gen
{8a	und
=11	=11
8g	rief
8g	wol
8a	ü-
8b-	-ber-
=12	=12
(4cc	-laut
8ff)}	.
{8a	Vic-
=13	=13
8cc	-to-
8bn	-ri-
8cc	-a!
8a	Vic-
=14	=14
8f	-to-
8f	-ri-
8f}	-a!
{8a	Mein
=15	=15
8g	Toch-
8f	-ter
8g	iſt
8a	'ne
=16	=16
4f	Braut.
8r}	.
{8c	2._Da
=17	=17
8c	kam
8c	die
8c	Mut-
8c	-ter
=18	=18
4b-	g'ſprun-
8b-/}	-gen
{8a	und
=19	=19
8g	rief
8g	wol
8a	ü-
8b-	-ber-
=20	=20
(4cc	-laut
8ff)}	.
{8a	Vic-
=21	=21
8cc	-to-
8bn	-ri-
8cc	-a!
8a	Vic-
=22	=22
8f	-to-
8f	-ri-
8f}	-a!
{8a	Mein
=23	=23
8g	Toch-
8f	-ter
8g	iſt
8a	'ne
=24	=24
4f	Braut.
4r}	.
==	==
!!!AGN: Hochzeits -, Ehestands - Lied, Scherz - Lied, Bettelhochzeit
!!!ONB: ESAC (Essen Associative Code) Database: ERK2
!!!AMT: simple duple
!!!AIN: vox
!!!EED: Helmut Schaffrath
!!!EEV: 1.0
!!!GTL: Hochzeits- und Ehrstandslieder, nebst Nonnenklagen
!!!URL-scan: https://rosdok.uni-rostock.de/mcrviewer/recordIdentifier/rosdok_ppn745177662/iview2/phys_0681.iview2?x=193.8995864193107&y=734.0462192557752&scale=0.7029437510502773&rotation=0&layout=singlePageLayout
!!!ENC: Anna Maria Matuszewska
!!!EEV: 2024/12/18
*-	*-
